X:1
T:I live, and yet methinks - Wilbye
T:#
%%score { 1 | 2 } 3 { ( 4 5 ) | 6 }
L:1/8
Q:1/4=120
M:4/4
K:F
V:1 treble nm="Soprano I" snm="S"
V:2 treble 
V:3 treble-8 nm="Tenor" snm="T"
V:4 treble nm="Midi_7"
V:5 treble 
V:6 bass 
V:1
"^I live, and yet methinks I do not breathe""^John Wilbye\n (1574-1638)"!p! F8 | E8 | z2 A4 G2- | %3
w: I|live,|and yet|
 G2 A4 F2- | F2 G2 E2 E2 | ^F8 | =F2 A4 G2 | F2 E2 D2 D2 |[M:4/4] (^C2 D4 C2) | %9
w: * me- thinks|* I do not|breathe,|and yet me-|thinks I do not|breathe: * *|
 z2"^cresc." A2 B2 c2 | d2 B2 A4- | A4 G4 | G4 ^F4 | G8 | z2 ^C2 D2 E2 | F2 D2 ^C4 | A8 | G6 G2 | %18
w: I thirst, and|drink, I drink,|* and|thirst a-|gain,|I thirst, and|drink, I drink,|and|thirst a-|
 ^F8 | z4!pp! A4 | A8- | A8 | A4 A4 | B8- | B4 A4 | c4 A4 | G4 G4 | A4 D4 | E4 F4 | F4 E4 | F8 | %31
w: gain:|I|sleep||* and|yet|* I|dream I|am a-|wake: I|hope for|that I|have;|
 z4 A4- | A4 G2 F2 | E6!mf! E2 | (FEFG A2) B2 | z2!p! c4"^cresc." A2 | d6 F2 | G2 G2 A4- | %38
w: I|* have, and|want: I|sing, * * * * and|sigh: I|love and|hate at once,|
 A2!mf! (GF) (EDEF | E2) D2 z2 ^C2- | C2 E2 A4- | A2 F2 E2 E2 | ^F8 | z2 A2 A2 A2 | d6 d2 | c8 | %46
w: * I * sing * * *|* and sigh;|* I love|* and hate at|once.|Oh! tell me,|rest- less|soul,|
 z2 B2 B2 B2 | A6 =B2 | c8 | F4 _B4- | B4 A4 | G4 G4 | A8 |"^cresc." c8 | c4 c4 | =B6!mf! c2 | %56
w: Oh! tell me,|rest- less|soul,|Oh! tell|* me,|rest- less|soul,|what|un- couth|jar Doth|
 d8- | d4 c4 | B4 B4 | A4 A4 | c6 =B2 | A4 G4 | F4 E4- | E4 D4- | D4 ^C4 | D2 F2 G2 A2 | %66
w: cause|* such|want in|store, doth|cause such|want in|store, in|* peace|* such|war, doth cause such|
 (Bc d4) c2 | B6 A2 | G4 G4 | ^F16 |] %70
w: want * * in|store, in|peace such|war?|
V:2
 z4!p! D4 | ^C8 | z2 F4 E2- | E2 F4 D2- | D2 E2 ^C2 C2 | D8 | z2 A2 c4 | B2 A4 G2 | %8
w: I|live,|and yet|* me- thinks|* I do not|breathe,|and yet|me- thinks I|
[M:4/4] A2 F2 E4 | z2"^cresc." ^F2 G2 A2 | B2 G2 ^F4 | d8 | c6 c2 | =B8 | z2 E2 F2 G2 | A2 F2 E4- | %16
w: do not breathe:|I thirst, and|drink, I drink,|and|thirst a-|gain,|I thirst, and|drink, I drink,|
 E4 D4 | D4 ^C4 | D8 | z4!pp! D4 | E4 F4 | E8- | E4 F4 | G8- | G4 F4 | E4 (F4- | F4 E4) | F4 F4 | %28
w: * and|thirst a-|gain:|I|sleep, and|yet|* I|dream|* I|am a||wake: I|
 G4 A4 | B4 B4 | A8 | z4 F4- | F4 E2 D2 | ^C6!mf! A2 | (AGFE F2) F2 | z2!p! G4"^cresc." A2 | %36
w: hope for|that I|have;|I|* have, and|want: I|sing, * * * * and|sigh: I|
 B6 A2 | c2 E2 F4- | F2!mf! (ED) (^C=B,CD | ^C2) D2 z2 E2 | (A2 G2) F4- | F2 D2 D2 ^C2 | D8 | %43
w: love and|hate at once,|* I * sing * * *|* and sigh;|I * love|* and hate at|once.|
 z2 =F2 F2 F2 | D2 (EF) G4- | G4 F4 | G4 (F2 ED) | C4 D4 | E4 (G2 A2) | (B2 A2 G2 F2) | G4 F4- | %51
w: Oh! tell me,|rest- less * soul,|* Oh!|tell me, * *|rest- less|soul, Oh! *|tell * * *|me, rest\-|
 F4 E4 | F8 | ^F4 G4- | G4 ^F4 | G6!mf! A2 | _B4 A4 | G2 D2 E2 =F2 | G6 G2 | ^C4 F4 | E4 A4 | %61
w: * less|soul,|what un\-|* couth|jar Doth|cause such|want in store, doth|cause such|want in|store, doth|
 c6 =B2 | A4 G4 | G4 F4 | E4 E4 | D2 d2 d2 c2 | B4 A4 | G4 ^F4 | B4 B4 | A16 |] %70
w: cause such|want in|store, in|peace such|war, doth cause such|want in|store, in|peace such|war?|
V:3
!p! d8 | A8 | z2 F4 c2- | c2 A2 (d3 c | BA) G2 A2 A2 | D8 | d2 f4 e2 | d2 c2 B2 B2 | %8
w: I|live,|and yet|* me- thinks *|* * I do not|breathe,|and yet me-|thinks I do not|
[M:4/4][K:treble-8] A8 |"^cresc." d8- | d8 | ^F4 B4 | A6 A2 | G8 | A8- | A8 | ^C4 F4 | E4 E4 | %18
w: breathe:|I||thirst, and|drink a-|gain,|I||drink and|thirst a-|
 D8- | D4!pp! d4 | ^c4 d4 | A6 =B2 | ^c4 d4 | (G6 A2) | B2 =c2 d2 d2 | c8- | c8 | A4 B4- | B4 A4 | %29
w: gain:|* I|sleep, and|yet I|dream, I|dream *|* I am a-|wake:||I hope|* for|
 G4 G4 | F8 | z4 F4- | F4 C2 D2 | A6!mf! A2 | d6 d2 | z2!p! c4"^cresc." f2 | B6 d2 | c2 c2 F4- | %38
w: that I|have;|I|* have, and|want: I|sing, and|sigh: I|love and|hate at once,|
 F2!mf! G2 A4- | A2 d2 z2 A2- | A2 =c2 F4- | F2 G2 A2 A2 | D8 | z2 d2 d2 c2 | B6 B2 | A8 | %46
w: * I sing|* and sigh;|* I love|* and hate at|once.|Oh! tell me,|rest- less|soul,|
 G4 D2 E2 | F4 D4 | C8 | D8 | E4 F4 | C4 C4 | F8 | A8 | A4 A4 | G8- | G4!mf! ^F4 | G8 | G8 | A8- | %60
w: Oh! tell me,|rest- less|soul,|Oh!|tell me,|rest- less|soul,|what|un- couth|jar|* Doth|cause|such|want|
 A8 | A8 | A8 | A8- | A4 A4 | B6 A2 | G4 ^F4 | G4 D4 | G4 G4 | D16 |] %70
w: ||in|store,|* doth|cause such|want in|store, in|peace such|war?|
V:4
 F8 | E8 | z2 A4 G2- | G2 A4 F2- | F2 G2 E2 E2 | ^F8 | =F2 A4 G2 | F2 E2 D2 D2 |[M:4/4] ^C2 D4 C2 | %9
 z2 A2 B2 c2 | d2 B2 A4- | A4 G4 | G4 ^F4 | G8 | z2 ^C2 D2 E2 | F2 D2 ^C4 | A8 | G6 G2 | ^F8 | %19
 z4 A4 | A8- | A8 | A4 A4 | B8- | B4 A4 | c4 A4 | [FG]4 G4 | A4 D4 | E4 F4 | F4 E4 | F8 | z4 A4- | %32
 A4 G2 F2 | E6!mf! E2 | FEFG A2 B2 | z2 c4 A2 | d6 F2 | G2 G2 A4- | A2 GF EDEF | E2 D2 z2 ^C2- | %40
 C2 E2 A4- | A2 F2 [DE]2 E2 | ^F8 | z2 A2 A2 A2 | d6 d2 | c8 | z2 B2 B2 B2 | A6 =B2 | c8 | %49
 F4 _B4- | B4 A4 | [FG]4 G4 | A8 | c8 | c4 c4 | =B6 c2 | d8- | d4 c4 | B4 B4 | A4 A4 | c6 =B2 | %61
 A4 G4 | F4 E4- | E4 D4- | D4 ^C4 | D2 F2 G2 A2 | Bc d4 c2 | B6 A2 | G4 G4 | ^F16 |] %70
V:5
 z4 D4 | ^C8 | z2 F4 E2- | E2 F4 D2- | D2 E2 ^C2 C2 | D8 | x2 A2 c4 | B2 A4 G2 |[M:4/4] A2 F2 E4 | %9
 z2 ^F2 G2 A2 | B2 G2 ^F4 | d8 | c6 c2 | =B8 | z2 E2 F2 G2 | A2 F2 E4- | E4 D4 | D4 ^C4 | D8 | %19
 z4 D4 | E4 F4 | E8- | E4 F4 | G8- | G4 F4 | E4 F4- | F4 E4 | F4 F4 | G4 A4 | B4 B4 | A8 | z4 F4- | %32
 F4 E2 D2 | ^C6 A2 | AGFE F2 F2 | z2 G4 A2 | B6 A2 | c2 E2 F4- | F2 ED ^C=B,CD | ^C2 D2 z2 E2 | %40
 A2 G2 F4- | F2 D2 D2 ^C2 | D8 | z2 =F2 F2 F2 | D2 EF G4- | G4 F4 | G4 F2 ED |[I:staff +1] C4 D4 | %48
[I:staff -1] E4 G2 A2 | B2 A2 G2 F2 | G4 F4- | F4 E4 | F8 | ^F4 G4- | G4 ^F4 | G6 A2 | _B4 A4 | %57
 G2 D2 E2 =F2 | G6 G2 | ^C4 F4 | E4 A4 | c6 =B2 | A4 G4 | G4 F4 | [DE]4 E4 | D2 d2 d2 c2 | B4 A4 | %67
 G4 ^F4 | B4 B4 | A16 |] %70
V:6
!p! D8 | A,8 | z2 F,4 C2- | C2 A,2 D3 C | B,A, G,2 A,2 A,2 | D,8 | D2 F4 E2 | D2 C2 B,2 B,2 | %8
[M:4/4] A,8 | D8- | D8 | ^F,4 B,4 | A,6 A,2 | G,8 | A,8- | A,8 | ^C,4 F,4 | E,4 E,4 | D,8- | %19
 D,4 D4 | ^C4 D4 | A,6 =B,2 | ^C4 D4 | G,6 A,2 | B,2 =C2 D2 D2 | C8- | C8 | A,4 B,4- | B,4 A,4 | %29
 G,4 G,4 | F,8 | z4 F,4- | F,4 C,2 D,2 | A,6 A,2 | D6 D2 | x2[I:staff -1] C4 F2 | %36
[I:staff +1] B,6 D2 | C2 C2 F,4- | F,2 G,2 A,4- | A,2 D2 z2 A,2- | A,2 =C2 F,4- | F,2 G,2 A,2 A,2 | %42
 D,8 | z2 D2 D2 C2 | B,6 B,2 | A,8 | G,4 D,2 E,2 | F,4 D,4 | C,8 | D,8 | E,4 F,4 | C,4 C,4 | F,8 | %53
 A,8 | A,4 A,4 | G,8- | G,4 ^F,4 | G,8 | G,8 | A,8- | A,8 | A,8 | A,8 | A,8- | A,4 A,4 | B,6 A,2 | %66
 G,4 ^F,4 | G,4 D,4 | G,4 G,4 | D,16 |] %70

